icons/svg/placeholder_20.svg

<?xml version="1.0" encoding="UTF-8"?>
<svg width="20px" height="20px" viewBox="0 0 20 20" version="1.1" xmlns="http://www.w3.org/2000/svg" xmlns:xlink="http://www.w3.org/1999/xlink">
    <!-- Generator: Sketch 57.1 (83088) - https://sketch.com -->
    <title>placeholder_20</title>
    <desc>Created with Sketch.</desc>
    <g id="Icons-Webex" stroke="none" stroke-width="1" fill="none" fill-rule="evenodd">
        <g id="content/placeholder_20" fill="#171B1F">
            <path d="M3,0 L17,0 C18.6568542,0 20,1.34314575 20,3 L20,17 C20,18.6568542 18.6568542,20 17,20 L3,20 C1.34314575,20 0,18.6568542 0,17 L0,3 C0,1.34314575 1.34314575,0 3,0 Z M3,1 C1.8954305,1 1,1.8954305 1,3 L1,17 C1,18.1045695 1.8954305,19 3,19 L17,19 C18.1045695,19 19,18.1045695 19,17 L19,3 C19,1.8954305 18.1045695,1 17,1 L3,1 Z" id="fill"></path>
        </g>
    </g>
</svg>

<svg width="20" height="20" xmlns="http://www.w3.org/2000/svg"><path d="M3 0h14a3 3 0 013 3v14a3 3 0 01-3 3H3a3 3 0 01-3-3V3a3 3 0 013-3zm0 1a2 2 0 00-2 2v14a2 2 0 002 2h14a2 2 0 002-2V3a2 2 0 00-2-2H3z" fill="#171B1F" fill-rule="evenodd"/></svg>
